; generated by PrusaSlicer 2.2.0+win64 on 2020-08-10 at 14:38:16 UTC

; 

; external perimeters extrusion width = 0.45mm
; perimeters extrusion width = 0.45mm
; infill extrusion width = 0.45mm
; solid infill extrusion width = 0.45mm
; top infill extrusion width = 0.40mm
; first layer extrusion width = 0.42mm

M73 P0 R20
M73 Q0 S20
M201 X1000 Y1000 Z200 E5000 ; sets maximum accelerations, mm/sec^2
M203 X200 Y200 Z12 E120 ; sets maximum feedrates, mm/sec
M204 P1250 R1250 T1250 ; sets acceleration (P, T) and retract acceleration (R), mm/sec^2
M205 X8.00 Y8.00 Z0.40 E4.50 ; sets the jerk limits, mm/sec
M205 S0 T0 ; sets the minimum extruding and travel feed rate, mm/sec
M107
M862.3 P "MK3" ; printer model check
M862.1 P0.4 ; nozzle diameter check
M115 U3.9.0 ; tell printer latest fw version
G90 ; use absolute coordinates
M83 ; extruder relative mode
M104 S215 ; set extruder temp
M140 S60 ; set bed temp
M190 S60 ; wait for bed temp
M109 S215 ; wait for extruder temp
G28 W ; home all without mesh bed level
G80 ; mesh bed leveling
G1 Y-3.0 F1000.0 ; go outside print area
G92 E0.0
G1 X60.0 E9.0 F1000.0 ; intro line
M73 Q0 S20
M73 P0 R20
G1 X100.0 E12.5 F1000.0 ; intro line
G92 E0.0
M221 S95
G21 ; set units to millimeters
G90 ; use absolute coordinates
M83 ; use relative distances for extrusion
M900 K0.06 ; Filament gcode LA 1.5
M900 K30 ; Filament gcode LA 1.0
;BEFORE_LAYER_CHANGE
G92 E0.0
;0.2


G1 E-0.80000 F2100.00000
G1 Z0.600 F10800.000
;AFTER_LAYER_CHANGE
;0.2
G1 X115.098 Y94.719
G1 Z0.200
G1 E0.80000 F2100.00000
M204 S1000
G1 F1200.000
G1 X116.138 Y93.592 E0.04809
G1 X117.363 Y92.509 E0.05127
G1 X118.652 Y91.590 E0.04963
G1 X120.040 Y90.801 E0.05005
G1 X121.436 Y90.186 E0.04783
G1 X123.021 Y89.673 E0.05222
G1 X124.512 Y89.358 E0.04779
G1 X126.972 Y89.160 E0.07739
G1 X129.426 Y89.358 E0.07719
G1 X130.906 Y89.671 E0.04742
G1 X132.492 Y90.182 E0.05226
G1 X133.884 Y90.793 E0.04766
G1 X135.275 Y91.582 E0.05015
G1 X136.568 Y92.503 E0.04976
G1 X137.800 Y93.591 E0.05156
G1 X138.840 Y94.719 E0.04809
G1 X139.794 Y95.992 E0.04989
G1 X140.604 Y97.341 E0.04935
G1 X141.279 Y98.779 E0.04980
G1 X141.807 Y100.293 E0.05026
G1 X142.169 Y101.824 E0.04935
G1 X142.377 Y103.415 E0.05030
G1 X142.419 Y104.940 E0.04783
G1 X142.297 Y106.588 E0.05181
G1 X142.014 Y108.146 E0.04963
G1 X141.569 Y109.682 E0.05014
G1 X141.026 Y111.027 E0.04550
G1 X140.145 Y112.686 E0.05888
G1 X139.317 Y113.908 E0.04629
G1 X138.227 Y115.197 E0.05294
G1 X137.164 Y116.229 E0.04644
G1 X135.916 Y117.216 E0.04989
G1 X134.580 Y118.065 E0.04963
G1 X133.149 Y118.779 E0.05014
G1 X131.680 Y119.332 E0.04922
G1 X130.144 Y119.738 E0.04980
G1 X128.572 Y119.984 E0.04989
G1 X126.968 Y120.068 E0.05039
G1 X125.379 Y119.986 E0.04989
G1 X123.810 Y119.742 E0.04976
G1 X122.284 Y119.341 E0.04948
G1 X120.789 Y118.779 E0.05008
G1 X119.371 Y118.071 E0.04969
G1 X118.037 Y117.225 E0.04954
G1 X116.775 Y116.229 E0.05039
G1 X115.721 Y115.208 E0.04603
G1 X114.633 Y113.922 E0.05281
G1 X113.803 Y112.699 E0.04633
G1 X112.925 Y111.054 E0.05847
G1 X112.371 Y109.685 E0.04631
G1 X111.929 Y108.163 E0.04969
G1 X111.644 Y106.604 E0.04967
G1 X111.519 Y104.941 E0.05231
G1 X111.561 Y103.429 E0.04742
G1 X111.765 Y101.851 E0.04989
G1 X112.130 Y100.297 E0.05004
G1 X112.654 Y98.791 E0.05002
G1 X113.329 Y97.350 E0.04989
G1 X114.144 Y95.993 E0.04963
G1 X115.062 Y94.767 E0.04801
G1 X115.363 Y94.993 F10800.000
G1 F1200.000
G1 X116.405 Y93.858 E0.04833
G1 X117.609 Y92.795 E0.05034
G1 X118.871 Y91.897 E0.04855
G1 X120.225 Y91.130 E0.04879
G1 X121.590 Y90.530 E0.04676
G1 X123.122 Y90.036 E0.05046
G1 X124.585 Y89.728 E0.04688
G1 X126.973 Y89.537 E0.07512
G1 X129.357 Y89.728 E0.07498
G1 X130.820 Y90.037 E0.04688
G1 X132.347 Y90.530 E0.05034
G1 X133.716 Y91.131 E0.04688
G1 X135.070 Y91.898 E0.04879
G1 X136.332 Y92.796 E0.04855
G1 X137.532 Y93.857 E0.05022
G1 X138.549 Y94.959 E0.04700
G1 X139.480 Y96.200 E0.04867
G1 X140.277 Y97.528 E0.04855
G1 X140.935 Y98.934 E0.04867
G1 X141.445 Y100.400 E0.04867
G1 X141.801 Y101.907 E0.04855
G1 X142.001 Y103.446 E0.04867
G1 X142.042 Y104.941 E0.04688
G1 X141.922 Y106.546 E0.05046
G1 X141.646 Y108.066 E0.04843
G1 X141.212 Y109.560 E0.04879
G1 X140.672 Y110.897 E0.04521
G1 X139.829 Y112.479 E0.05620
G1 X139.017 Y113.679 E0.04541
G1 X137.952 Y114.940 E0.05177
G1 X136.917 Y115.944 E0.04521
G1 X135.696 Y116.909 E0.04879
G1 X134.393 Y117.737 E0.04843
G1 X132.997 Y118.434 E0.04891
G1 X131.555 Y118.977 E0.04832
G1 X130.054 Y119.372 E0.04867
G1 X128.520 Y119.611 E0.04867
G1 X126.970 Y119.691 E0.04867
G1 X125.420 Y119.612 E0.04867
G1 X123.886 Y119.373 E0.04867
G1 X122.385 Y118.977 E0.04867
G1 X120.939 Y118.433 E0.04843
G1 X119.543 Y117.736 E0.04891
G1 X118.240 Y116.907 E0.04843
G1 X117.022 Y115.945 E0.04867
G1 X115.987 Y114.941 E0.04521
G1 X114.839 Y113.564 E0.05621
G1 X114.034 Y112.360 E0.04541
G1 X113.267 Y110.898 E0.05177
G1 X112.727 Y109.561 E0.04521
G1 X112.293 Y108.067 E0.04879
G1 X112.016 Y106.543 E0.04855
G1 X111.896 Y104.942 E0.05034
G1 X111.937 Y103.447 E0.04688
G1 X112.137 Y101.908 E0.04867
G1 X112.493 Y100.401 E0.04855
G1 X113.003 Y98.935 E0.04867
G1 X113.661 Y97.529 E0.04867
G1 X114.458 Y96.201 E0.04855
G1 X115.327 Y95.041 E0.04545
G1 F8640.000
G1 X116.405 Y93.858 E-0.36972
G1 X117.609 Y92.795 E-0.37073
G1 X117.678 Y92.746 E-0.01956
G1 E-0.04000 F2100.00000
G1 Z0.800 F10800.000
G1 X117.822 Y96.984
G1 Z0.200
G1 E0.80000 F2100.00000
G1 F1200.000
G1 X118.655 Y96.084 E0.03845
G1 X119.577 Y95.274 E0.03845
G1 X120.576 Y94.563 E0.03845
G1 X121.644 Y93.959 E0.03845
G1 X122.767 Y93.468 E0.03845
G1 X123.936 Y93.095 E0.03845
G1 X125.136 Y92.844 E0.03845
G1 X126.366 Y92.717 E0.03877
G1 X126.971 Y92.702 E0.01896
G1 X127.572 Y92.717 E0.01887
G1 X128.802 Y92.844 E0.03877
G1 X130.003 Y93.095 E0.03845
G1 X131.171 Y93.468 E0.03845
G1 X132.295 Y93.959 E0.03845
G1 X133.362 Y94.563 E0.03845
G1 X134.362 Y95.274 E0.03845
G1 X135.283 Y96.084 E0.03845
G1 X136.116 Y96.984 E0.03845
G1 X136.852 Y97.965 E0.03845
G1 X137.484 Y99.016 E0.03845
G1 X138.004 Y100.127 E0.03845
G1 X138.406 Y101.285 E0.03845
G1 X138.688 Y102.479 E0.03845
G1 X138.846 Y103.695 E0.03845
G1 X138.877 Y104.921 E0.03845
G1 X138.783 Y106.144 E0.03845
G1 X138.563 Y107.350 E0.03845
G1 X138.220 Y108.528 E0.03845
G1 X137.758 Y109.664 E0.03845
G1 X137.181 Y110.746 E0.03845
G1 X136.497 Y111.764 E0.03845
G1 X135.711 Y112.706 E0.03845
G1 X134.833 Y113.562 E0.03845
G1 X133.871 Y114.323 E0.03845
G1 X132.836 Y114.981 E0.03845
G1 X131.739 Y115.529 E0.03845
G1 X130.592 Y115.962 E0.03845
G1 X129.406 Y116.274 E0.03845
G1 X128.194 Y116.463 E0.03845
G1 X126.969 Y116.526 E0.03845
G1 X125.744 Y116.463 E0.03845
G1 X124.533 Y116.274 E0.03845
G1 X123.347 Y115.962 E0.03845
G1 X122.199 Y115.529 E0.03845
G1 X121.102 Y114.981 E0.03845
G1 X120.067 Y114.323 E0.03845
G1 X119.106 Y113.562 E0.03845
G1 X118.227 Y112.706 E0.03845
G1 X117.442 Y111.764 E0.03845
G1 X116.757 Y110.746 E0.03845
G1 X116.181 Y109.664 E0.03845
G1 X115.719 Y108.528 E0.03845
G1 X115.376 Y107.350 E0.03845
G1 X115.156 Y106.144 E0.03845
G1 X115.061 Y104.921 E0.03845
G1 X115.093 Y103.695 E0.03845
G1 X115.250 Y102.479 E0.03845
G1 X115.532 Y101.285 E0.03845
G1 X115.935 Y100.127 E0.03845
G1 X116.455 Y99.016 E0.03845
G1 X117.086 Y97.965 E0.03845
G1 X117.786 Y97.032 E0.03657
G1 X117.485 Y96.805 F10800.000
G1 F1200.000
G1 X118.392 Y95.813 E0.04215
G1 X119.342 Y94.978 E0.03967
G1 X120.374 Y94.245 E0.03967
G1 X121.475 Y93.622 E0.03967
G1 X122.634 Y93.115 E0.03967
G1 X123.839 Y92.730 E0.03967
G1 X125.078 Y92.471 E0.03967
G1 X126.342 Y92.341 E0.03984
G1 X126.971 Y92.324 E0.01972
G1 X127.597 Y92.341 E0.01963
G1 X128.860 Y92.471 E0.03984
G1 X130.099 Y92.730 E0.03967
G1 X131.304 Y93.115 E0.03967
G1 X132.464 Y93.622 E0.03967
G1 X133.565 Y94.245 E0.03967
G1 X134.596 Y94.978 E0.03967
G1 X135.547 Y95.813 E0.03967
G1 X136.406 Y96.742 E0.03967
G1 X137.166 Y97.754 E0.03967
G1 X137.817 Y98.839 E0.03967
G1 X138.353 Y99.984 E0.03967
G1 X138.769 Y101.180 E0.03967
G1 X139.060 Y102.411 E0.03967
G1 X139.222 Y103.666 E0.03967
G1 X139.255 Y104.931 E0.03967
G1 X139.157 Y106.192 E0.03967
G1 X138.930 Y107.437 E0.03967
G1 X138.577 Y108.652 E0.03967
G1 X138.100 Y109.824 E0.03967
G1 X137.505 Y110.941 E0.03967
G1 X136.799 Y111.991 E0.03967
G1 X135.988 Y112.962 E0.03967
G1 X135.082 Y113.845 E0.03967
G1 X134.090 Y114.631 E0.03967
G1 X133.022 Y115.310 E0.03967
G1 X131.891 Y115.875 E0.03967
G1 X130.707 Y116.322 E0.03967
G1 X129.483 Y116.644 E0.03967
G1 X128.233 Y116.839 E0.03967
G1 X126.969 Y116.904 E0.03967
G1 X125.706 Y116.839 E0.03967
G1 X124.455 Y116.644 E0.03967
G1 X123.232 Y116.322 E0.03967
G1 X122.048 Y115.875 E0.03967
G1 X120.916 Y115.310 E0.03967
G1 X119.848 Y114.631 E0.03967
G1 X118.856 Y113.845 E0.03967
G1 X117.950 Y112.962 E0.03967
G1 X117.140 Y111.991 E0.03967
G1 X116.433 Y110.941 E0.03967
G1 X115.839 Y109.824 E0.03967
G1 X115.362 Y108.652 E0.03967
G1 X115.008 Y107.437 E0.03967
G1 X114.781 Y106.192 E0.03967
G1 X114.684 Y104.931 E0.03967
G1 X114.716 Y103.666 E0.03967
G1 X114.879 Y102.411 E0.03967
G1 X115.170 Y101.180 E0.03967
G1 X115.585 Y99.984 E0.03967
G1 X116.122 Y98.839 E0.03967
G1 X116.773 Y97.754 E0.03967
G1 X117.449 Y96.853 E0.03530
G1 X117.879 Y96.872 F10800.000
G1 F8640.000
G1 X118.392 Y95.813 E-0.32420
G1 X119.342 Y94.978 E-0.29216
G1 X119.849 Y94.617 E-0.14364
G1 E-0.04000 F2100.00000
G1 Z0.800 F10800.000
G1 X136.560 Y97.763
G1 Z0.200
G1 E0.80000 F2100.00000
G1 F1200.000
G1 X135.064 Y96.268 E0.06701
G1 X134.186 Y95.496 E0.03705
G1 X133.210 Y94.802 E0.03793
G1 X132.864 Y94.606 E0.01262
G1 X136.974 Y98.716 E0.18416
G1 X137.234 Y99.149 E0.01601
G1 X137.556 Y99.837 E0.02406
G1 X131.747 Y94.029 E0.26026
G1 X131.071 Y93.733 E0.02337
G1 X130.839 Y93.659 E0.00774
G1 X137.916 Y100.736 E0.31713
G1 X138.135 Y101.364 E0.02107
G1 X138.175 Y101.534 E0.00551
G1 X130.047 Y93.406 E0.36418
G1 X129.350 Y93.248 E0.02266
G1 X138.341 Y102.239 E0.40289
G1 X138.410 Y102.529 E0.00946
G1 X138.457 Y102.893 E0.01163
G1 X128.679 Y93.116 E0.43812
G1 X128.078 Y93.054 E0.01914
G1 X138.537 Y103.513 E0.46865
G1 X138.563 Y103.717 E0.00653
G1 X138.573 Y104.087 E0.01175
G1 X127.483 Y92.998 E0.49691
G1 X126.932 Y92.986 E0.01747
G1 X138.587 Y104.641 E0.52225
G1 X138.594 Y104.914 E0.00866
G1 X138.575 Y105.167 E0.00805
G1 X126.407 Y92.999 E0.54523
G1 X125.917 Y93.048 E0.01560
G1 X138.536 Y105.667 E0.56545
G1 X138.492 Y106.162 E0.01574
G1 X125.428 Y93.098 E0.58536
G1 X124.961 Y93.170 E0.01498
G1 X138.409 Y106.618 E0.60258
G1 X138.326 Y107.074 E0.01468
G1 X124.515 Y93.263 E0.61884
G1 X124.069 Y93.356 E0.01443
G1 X138.222 Y107.509 E0.63416
G1 X138.100 Y107.926 E0.01377
G1 X123.656 Y93.481 E0.64725
G1 X123.247 Y93.612 E0.01359
G1 X137.979 Y108.344 E0.66011
G1 X137.831 Y108.734 E0.01324
G1 X122.841 Y93.745 E0.67167
G1 X122.466 Y93.908 E0.01297
G1 X137.675 Y109.117 E0.68149
G1 X137.519 Y109.500 E0.01310
G1 X122.091 Y94.072 E0.69131
G1 X121.720 Y94.241 E0.01290
G1 X137.335 Y109.856 E0.69969
G1 X137.148 Y110.207 E0.01262
G1 X121.376 Y94.435 E0.70672
G1 X121.032 Y94.630 E0.01253
G1 X136.961 Y110.559 E0.71375
G1 X136.748 Y110.885 E0.01233
G1 X120.692 Y94.828 E0.71946
G1 X120.377 Y95.052 E0.01224
G1 X136.531 Y111.207 E0.72386
G1 X136.314 Y111.529 E0.01230
G1 X120.062 Y95.276 E0.72826
G1 X119.747 Y95.501 E0.01224
G1 X136.075 Y111.828 E0.73163
G1 X135.830 Y112.122 E0.01212
G1 X119.460 Y95.753 E0.73350
G1 X119.173 Y96.005 E0.01210
G1 X135.585 Y112.416 E0.73537
G1 X135.321 Y112.691 E0.01208
G1 X118.887 Y96.257 E0.73640
G1 X118.853 Y96.286 E0.00142
G1 X118.624 Y96.533 E0.01067
G1 X135.048 Y112.957 E0.73593
G1 X134.775 Y113.223 E0.01207
G1 X118.365 Y96.813 E0.73530
G1 X118.106 Y97.093 E0.01208
G1 X134.488 Y113.474 E0.73402
G1 X134.187 Y113.712 E0.01215
G1 X117.868 Y97.394 E0.73122
G1 X117.637 Y97.702 E0.01220
G1 X133.886 Y113.951 E0.72809
G1 X133.574 Y114.177 E0.01223
G1 X117.406 Y98.010 E0.72445
G1 X117.193 Y98.336 E0.01234
G1 X133.244 Y114.387 E0.71922
G1 X132.915 Y114.596 E0.01237
G1 X116.991 Y98.672 E0.71352
M73 Q5 S19
M73 P5 R19
G1 X116.789 Y99.009 E0.01244
G1 X132.575 Y114.795 E0.70737
G1 X132.216 Y114.975 E0.01273
G1 X116.604 Y99.363 E0.69953
G1 X116.433 Y99.731 E0.01284
G1 X131.857 Y115.155 E0.69113
G1 X131.486 Y115.323 E0.01290
G1 X116.261 Y100.098 E0.68222
G1 X116.110 Y100.485 E0.01319
G1 X131.095 Y115.470 E0.67146
G1 X130.703 Y115.618 E0.01325
G1 X115.971 Y100.885 E0.66015
G1 X115.831 Y101.285 E0.01341
G1 X130.294 Y115.748 E0.64807
G1 X129.868 Y115.860 E0.01398
G1 X115.721 Y101.714 E0.63388
G1 X115.619 Y102.150 E0.01419
G1 X129.441 Y115.973 E0.61938
G1 X128.984 Y116.054 E0.01473
G1 X115.521 Y102.591 E0.60325
G1 X115.459 Y103.068 E0.01524
G1 X128.517 Y116.126 E0.58513
G1 X128.040 Y116.188 E0.01525
G1 X115.397 Y103.545 E0.56650
G1 X115.367 Y104.053 E0.01613
G1 X127.527 Y116.214 E0.54492
G1 X127.015 Y116.241 E0.01626
G1 X115.353 Y104.579 E0.52256
G1 X115.344 Y104.914 E0.01062
G1 X115.361 Y105.125 E0.00673
G1 X126.452 Y116.216 E0.49697
G1 X125.884 Y116.187 E0.01803
G1 X115.406 Y105.709 E0.46949
G1 X115.437 Y106.107 E0.01265
G1 X115.475 Y106.317 E0.00676
G1 X125.259 Y116.101 E0.43840
G1 X124.621 Y116.002 E0.02047
G1 X115.595 Y106.976 E0.40442
G1 X115.651 Y107.285 E0.00995
G1 X115.769 Y107.689 E0.01333
G1 X123.893 Y115.814 E0.36405
G1 X123.433 Y115.692 E0.01509
G1 X123.112 Y115.571 E0.01085
G1 X115.993 Y108.452 E0.31901
G1 X116.362 Y109.360 E0.03107
G1 X122.232 Y115.229 E0.26299
G1 X121.242 Y114.735 E0.03507
G1 X121.121 Y114.658 E0.00451
G1 X116.927 Y110.464 E0.18795
G1 X117.000 Y110.601 E0.00492
G1 X117.668 Y111.594 E0.03793
G1 X118.422 Y112.498 E0.03729
G1 X120.193 Y114.269 E0.07936
M106 S255
;BEFORE_LAYER_CHANGE
G92 E0.0
;0.4


G1 F8640.000
G1 X118.422 Y112.498 E-0.57836
G1 X117.918 Y111.894 E-0.18164
G1 E-0.04000 F2100.00000
G1 Z0.800 F10800.000
;AFTER_LAYER_CHANGE
;0.4
G1 X114.633 Y113.922
G1 Z0.400
G1 E0.80000 F2100.00000
G1 F3000.000
G1 X113.803 Y112.699 E0.04633
G1 X112.925 Y111.054 E0.05847
G1 X112.371 Y109.685 E0.04631
G1 X111.929 Y108.163 E0.04969
G1 X111.644 Y106.604 E0.04967
G1 X111.519 Y104.941 E0.05231
G1 X111.561 Y103.429 E0.04742
G1 X111.765 Y101.851 E0.04989
G1 X112.130 Y100.297 E0.05004
G1 X112.654 Y98.791 E0.05002
G1 X113.329 Y97.350 E0.04989
G1 X114.144 Y95.993 E0.04963
G1 X115.098 Y94.719 E0.04989
G1 X116.138 Y93.592 E0.04809
G1 X117.363 Y92.509 E0.05127
G1 X118.652 Y91.590 E0.04963
G1 X120.040 Y90.801 E0.05005
G1 X121.436 Y90.186 E0.04783
G1 X123.021 Y89.673 E0.05222
G1 X124.512 Y89.358 E0.04779
G1 X126.972 Y89.160 E0.07739
G1 X129.426 Y89.358 E0.07719
G1 X130.906 Y89.671 E0.04742
G1 X132.492 Y90.182 E0.05226
G1 X133.884 Y90.793 E0.04766
G1 X135.275 Y91.582 E0.05015
G1 X136.568 Y92.503 E0.04976
G1 X137.800 Y93.591 E0.05156
G1 X138.840 Y94.719 E0.04809
G1 X139.794 Y95.992 E0.04989
G1 X140.604 Y97.341 E0.04935
G1 X141.279 Y98.779 E0.04980
G1 X141.807 Y100.293 E0.05026
G1 X142.169 Y101.824 E0.04935
G1 X142.377 Y103.415 E0.05030
G1 X142.419 Y104.940 E0.04783
G1 X142.297 Y106.588 E0.05181
G1 X142.014 Y108.146 E0.04963
G1 X141.569 Y109.682 E0.05014
G1 X141.026 Y111.027 E0.04550
G1 X140.145 Y112.686 E0.05888
G1 X139.317 Y113.908 E0.04629
G1 X138.227 Y115.197 E0.05294
G1 X137.164 Y116.229 E0.04644
G1 X135.916 Y117.216 E0.04989
G1 X134.580 Y118.065 E0.04963
G1 X133.149 Y118.779 E0.05014
G1 X131.680 Y119.332 E0.04922
G1 X130.144 Y119.738 E0.04980
G1 X128.572 Y119.984 E0.04989
G1 X126.968 Y120.068 E0.05039
G1 X125.379 Y119.986 E0.04989
G1 X123.810 Y119.742 E0.04976
G1 X122.284 Y119.341 E0.04948
G1 X120.789 Y118.779 E0.05008
G1 X119.371 Y118.071 E0.04969
G1 X118.037 Y117.225 E0.04954
G1 X116.775 Y116.229 E0.05039
G1 X115.721 Y115.208 E0.04603
G1 X114.672 Y113.967 E0.05093
G1 X114.839 Y113.564 F10800.000
G1 F3000.000
G1 X114.034 Y112.360 E0.04541
G1 X113.267 Y110.898 E0.05177
G1 X112.727 Y109.561 E0.04521
G1 X112.293 Y108.067 E0.04879
G1 X112.016 Y106.543 E0.04855
G1 X111.896 Y104.942 E0.05034
G1 X111.937 Y103.447 E0.04688
G1 X112.137 Y101.908 E0.04867
G1 X112.493 Y100.401 E0.04855
G1 X113.003 Y98.935 E0.04867
G1 X113.661 Y97.529 E0.04867
G1 X114.458 Y96.201 E0.04855
G1 X115.389 Y94.959 E0.04867
G1 X116.405 Y93.858 E0.04700
